dist/img/icons/arrow-cycle.svg

<svg width="20" height="20" viewBox="0 0 20 20" fill="none" xmlns="http://www.w3.org/2000/svg"><path fill-rule="evenodd" clip-rule="evenodd" d="M10 0C4.5 0 0 4.5 0 10s4.5 10 10 10c4.625 0 8.5-3.25 10-7.5h-2.5c-1.5 2.875-4.25 5-7.5 5-4.125 0-7.5-3.375-7.5-7.5S5.875 2.5 10 2.5c2.125 0 3.875.875 5 2.5l-3.75 3.75H20V0l-2.5 2.5C15.25 1.25 12.75 0 10 0z" fill="#fff"/></svg>

<svg width="20" height="20" viewBox="0 0 20 20" fill="none" xmlns="http://www.w3.org/2000/svg">
<path fill-rule="evenodd" clip-rule="evenodd" d="M10 0C4.5 0 0 4.5 0 10C0 15.5 4.5 20 10 20C14.625 20 18.5 16.75 20 12.5H17.5C16 15.375 13.25 17.5 10 17.5C5.875 17.5 2.5 14.125 2.5 10C2.5 5.875 5.875 2.5 10 2.5C12.125 2.5 13.875 3.375 15 5L11.25 8.75H20V0L17.5 2.5C15.25 1.25 12.75 0 10 0Z" fill="white"/>
</svg>
